X:1
T:Title
L:1/8
M:4/4
I:linebreak $
K:C
V:1 treble nm="Voice"
V:1
"Dm" D2 FD ADFA | DAFD AF D2 |"C" C2 EC GCEG |1 CGEC GE C2 :|2 CGEC"Dm" D4 |:"Dm" Ad z A d2 Ad | %6
 dcde fedd |"C" GccG ccGc |1 cBcd edcc :|2 CGEC"Dm" D4 |] %10
